!!!COM:	Bach, Johann Sebastian
!!!OMV:	Oh God, how many heart pains
!!!OTL:	Oh God, how many heart pains
**kern	**fb	**kern	**kern	**kern	**kern
*part5	*part5	*part4	*part3	*part2	*part1
*staff5	*	*staff4	*staff3	*staff2	*staff1
*I"Continuo	*	*I"Voice	*I"Voice	*I"Voice	*I"Voice
*I'Cont.	*	*I'V	*I'V	*I'V	*I'V
*clefF4	*	*clefF4	*clefGv2	*clefG2	*clefG2
*Trd0c0	*	*	*	*	*
*k[]	*	*k[]	*k[]	*k[]	*k[]
*M3/4	*	*M3/4	*M3/4	*M3/4	*M3/4
=	=	=	=	=	=
4C	.	4C	4G	4e	4cc
4E	.	4E	4c	4g	4cc
4C	.	4C	4e	4g	4cc
=3	=3	=3	=3	=3	=3
2F	5 3	2F	4c	4f	4a
.	6 4 2	.	4d	4g	4b
4E	6	4E	4e	4g	4cc
=4	=4	=4	=4	=4	=4
2F#X	6	2F#X	2d	2a	4dd
.	5	.	.	.	4cc
4G	.	4G	4d	4g	4b
=5	=5	=5	=5	=5	=5
2.D;	#	2.D;	2.d;	2.f#X;	2.a;
=6	=6	=6	=6	=6	=6
4D	#	4D	4d	4f#X	4a
4G	.	4G	4d	4g	4b
4E	6	4E	4e	4g	4cc
=7	=7	=7	=7	=7	=7
2BB	6	2BB	2d	2g	2dd
4C	.	4C	4e	4g	4cc
=8	=8	=8	=8	=8	=8
4G	.	4G	4d	4g	4b
2D	4	2D	4.d	4g	2a
.	#	.	.	4f#X	.
.	.	.	8c	.	.
=9	=9	=9	=9	=9	=9
2.GG;	.	2.GG;	2.B;	2.g;	2.g;
=10	=10	=10	=10	=10	=10
4c	5	4c	4c	4g	4ee
4G#X	6	4G#X	4B	4e	4ee
4E	#	4E	4e	4g#X	4ee
=11	=11	=11	=11	=11	=11
2A	.	2A	4e	4a	4cc
.	.	.	4f	4b	4dd
4AA	7 #	4AA	4gn	4cc#X	4ee
=12	=12	=12	=12	=12	=12
4D	.	4D	4f	4dd	4ff
4E	6	4E	4g	2ccn	2ee
4F	7 5	4F	4c	.	.
=13	=13	=13	=13	=13	=13
!!linebreak:original
2.G;	.	2.G;	2.B;	2.g;	2.dd;
=14	=14	=14	=14	=14	=14
4E	6	4E	4c	4g	4cc
4D	6	4D	4F	4b	4dd
4C	.	4C	4G	4cc	4ee
=15	=15	=15	=15	=15	=15
4F	6 5	4F	4A	4cc	2dd
4G	.	4G	4B	4b	.
4A	.	4A	4c	4e	4cc
=16	=16	=16	=16	=16	=16
4F#X	6 5	4F#X	4d	4a	4cc
4G	.	4G	2d	2g	2b
4GG	.	4GG	.	.	.
=17	=17	=17	=17	=17	=17
2.C;	.	2.C;	2.e;	2.g;	2.cc;
=:|!	=:|!	=:|!	=:|!	=:|!	=:|!
*-	*-	*-	*-	*-	*-
!!!system-decoration: s1,s2,s3,s4,s5
